dist/img/advantages/icons/spart_park.svg

<svg width="62" height="62" viewBox="0 0 62 62" fill="none" xmlns="http://www.w3.org/2000/svg">
<path d="M5 51.664V55.1487C5 56.1711 5.82886 57 6.85128 57H9.42638C10.4488 57 11.2777 56.1711 11.2777 55.1487V51.664M5 51.664H11.2777M5 51.664V36.5789C5 36.3391 5.09525 36.1091 5.2648 35.9396C5.43435 35.77 5.66431 35.6748 5.90409 35.6748H10.3736C10.6134 35.6748 10.8433 35.77 11.0129 35.9396C11.1824 36.1091 11.2777 36.3391 11.2777 36.5789V51.664M57 15.0268V10.336H50.7223V25.4211C50.7223 25.6609 50.8176 25.8909 50.9871 26.0604C51.1567 26.23 51.3866 26.3252 51.6264 26.3252H56.0959C56.3357 26.3252 56.5657 26.23 56.7352 26.0604C56.9048 25.8909 57 25.6609 57 25.4211V18.7934M10.0106 35.6747H6.24402V34.4191C6.24402 33.379 7.08722 32.5358 8.12732 32.5358C9.16743 32.5358 10.0106 33.379 10.0106 34.4191V35.6747ZM55.1487 5H52.5737C51.5513 5 50.7224 5.82886 50.7224 6.85128V10.336H57.0001V6.85128C57 5.82886 56.1711 5 55.1487 5ZM55.733 26.3253H51.9664V27.5809C51.9664 28.621 52.8096 29.4642 53.8497 29.4642C54.8898 29.4642 55.733 28.621 55.733 27.5809V26.3253Z" stroke="#005E9B" stroke-width="1.5" stroke-miterlimit="10" stroke-linecap="round" stroke-linejoin="round"/>
<path d="M13.9592 14.5761C15.6124 13.6462 17.5204 13.1157 19.5524 13.1157H19.5753C25.8851 13.1157 31.0001 18.2308 31.0001 24.5406V35.7189C31.0001 42.0287 36.1152 47.1437 42.4249 47.1437C48.7347 47.1437 53.8498 42.0287 53.8498 35.7189V29.483M8.12744 32.5359V24.5404C8.12744 21.5848 9.24978 18.8913 11.0915 16.8629" stroke="#005E9B" stroke-width="1.5" stroke-miterlimit="10" stroke-linecap="round" stroke-linejoin="round"/>
</svg>

<svg xmlns="http://www.w3.org/2000/svg" width="62" height="62" fill="none"><path stroke="#005E9B" stroke-linecap="round" stroke-linejoin="round" stroke-miterlimit="10" stroke-width="1.5" d="M5 51.664v3.485C5 56.17 5.829 57 6.851 57h2.575a1.851 1.851 0 0 0 1.852-1.851v-3.485m-6.278 0h6.278m-6.278 0V36.579a.904.904 0 0 1 .904-.904h4.47a.904.904 0 0 1 .904.904v15.085M57 15.027v-4.691h-6.278v15.085a.904.904 0 0 0 .904.904h4.47a.904.904 0 0 0 .904-.904v-6.628M10.01 35.675H6.245v-1.256a1.883 1.883 0 0 1 3.767 0v1.256ZM55.15 5h-2.575a1.851 1.851 0 0 0-1.852 1.851v3.485H57V6.851A1.851 1.851 0 0 0 55.15 5Zm.584 21.325h-3.767v1.256a1.883 1.883 0 0 0 3.767 0v-1.256Z"/><path stroke="#005E9B" stroke-linecap="round" stroke-linejoin="round" stroke-miterlimit="10" stroke-width="1.5" d="M13.96 14.576a11.373 11.373 0 0 1 5.592-1.46h.023C25.885 13.116 31 18.23 31 24.54v11.178c0 6.31 5.115 11.425 11.425 11.425 6.31 0 11.425-5.115 11.425-11.425v-6.236M8.127 32.536V24.54c0-2.955 1.123-5.649 2.964-7.677"/></svg>
